X: 29
T:The Lost Sheep (Theme from Fargo)
M:4/4
L:1/8
C:Trad. Norwegian
S:AnnBjorg Lien
K:G
EF/2^G/2|A2B2A2^G2|EF^G4A2|B2A2c2B2|A6A2|c2A2c2d2|
e6dc|B2A2c2{d}c2|B6A2|c2A2c2d2|e6dc|B2A2c2{d}c2|B6E2|A2B2A2^G2|
EF^G6G2|A3Bc2B2|A6||
